assets/firebase.svg

<svg height="288" width="288" xmlns="http://www.w3.org/2000/svg" xmlns:xlink="http://www.w3.org/1999/xlink"><defs><filter id="a" height="200%" width="200%" x="-50%" y="-50%"><feGaussianBlur in="SourceAlpha" result="shadowBlurInner1" stdDeviation="17.5"/><feOffset in="shadowBlurInner1" result="shadowOffsetInner1"/><feComposite in="shadowOffsetInner1" in2="SourceAlpha" k2="-1" k3="1" operator="arithmetic" result="shadowInnerInner1"/><feColorMatrix in="shadowInnerInner1" values="0 0 0 0 0   0 0 0 0 0   0 0 0 0 0  0 0 0 0.06 0"/></filter><filter id="b" height="200%" width="200%" x="-50%" y="-50%"><feGaussianBlur in="SourceAlpha" result="shadowBlurInner1" stdDeviation="3.5"/><feOffset dx="1" dy="-9" in="shadowBlurInner1" result="shadowOffsetInner1"/><feComposite in="shadowOffsetInner1" in2="SourceAlpha" k2="-1" k3="1" operator="arithmetic" result="shadowInnerInner1"/><feColorMatrix in="shadowInnerInner1" values="0 0 0 0 0   0 0 0 0 0   0 0 0 0 0  0 0 0 0.09 0"/></filter><path id="c" d="m1.25273437 280.731641 1.60561096-3.130783 99.35283167-188.5175034-44.1498504-83.4751513c-3.6693255-6.89124908-12.9872021-5.1345289-14.1914063 2.57968756z"/><path id="d" d="m134.417103 148.974235 32.038619-32.812497-32.038618-61.0070506c-3.042276-5.7910963-10.433193-6.3978512-13.443276-.5900391l-17.705078 34.1091813-.529327 1.7437177z"/></defs><svg height="288" preserveAspectRatio="xMidYMid" viewBox="0 0 256 351" width="288" xmlns="http://www.w3.org/2000/svg" xmlns:xlink="http://www.w3.org/1999/xlink"><path d="m0 282.99762 2.12250746-2.97202 100.40485554-190.5136716.21206-2.0167961-44.260617-83.13695519c-3.7081791-6.9642189-14.1475025-5.20342288-15.3644577 2.59247762z" fill="#fff"/><use fill="#ffa712" fill-rule="evenodd" xlink:href="#c"/><use filter="url(#a)" xlink:href="#c"/><path d="m135.004975 150.380704 32.955224-33.751243-32.964776-62.9301496c-3.129314-5.9567761-11.866606-5.9739703-14.962805-.0000002l-17.611603 33.5887736v2.8606595z" fill="#fff"/><use fill="#ffa50e" fill-rule="evenodd" xlink:href="#d"/><use filter="url(#b)" xlink:href="#d"/><path d="m0 282.998.962-.968 3.496-1.42 128.477-128 1.628-4.431-32.05-61.074z" fill="#fff"/><path d="m139.120971 347.551268 116.274945-64.847602-33.204218-204.4943287c-1.038647-6.3980895-8.88804-8.9275224-13.467384-4.3399005l-208.72405927 209.1284382 115.60819927 64.547661c7.306189 4.079443 16.204418 4.081354 23.512517.005732" fill="#fff"/><path d="m254.354084 282.159837-32.952147-202.9419001c-1.030762-6.3495181-7.558145-8.9769816-12.102724-4.4241869l-208.00975988 207.807035 114.33837188 63.908673c7.250723 4.048473 16.081401 4.050369 23.334021.005688z"/><path d="m139.120907 345.64082c-7.308099 4.075622-16.206328 4.073711-23.512517-.005731l-114.67704232-63.620538-.93115664.983324 115.60819896 64.547661c7.306189 4.079443 16.204418 4.081354 23.512517.005732l116.274946-64.847602-.284657-1.751881z" fill="#fff"/></svg></svg>

<?xml version="1.0" encoding="UTF-8" standalone="no"?>
<svg width="256px" height="351px" viewBox="0 0 256 351" version="1.1" xmlns="http://www.w3.org/2000/svg" xmlns:xlink="http://www.w3.org/1999/xlink" preserveAspectRatio="xMidYMid">
    <defs>
        <path d="M1.25273437,280.731641 L2.85834533,277.600858 L102.211177,89.0833546 L58.0613266,5.6082033 C54.3920011,-1.28304578 45.0741245,0.473674398 43.8699203,8.18789086 L1.25273437,280.731641 Z" id="path-1"/>
        <filter x="-50%" y="-50%" width="200%" height="200%" filterUnits="objectBoundingBox" id="filter-2">
            <feGaussianBlur stdDeviation="17.5" in="SourceAlpha" result="shadowBlurInner1"/>
            <feOffset dx="0" dy="0" in="shadowBlurInner1" result="shadowOffsetInner1"/>
            <feComposite in="shadowOffsetInner1" in2="SourceAlpha" operator="arithmetic" k2="-1" k3="1" result="shadowInnerInner1"/>
            <feColorMatrix values="0 0 0 0 0   0 0 0 0 0   0 0 0 0 0  0 0 0 0.06 0" type="matrix" in="shadowInnerInner1"/>
        </filter>
        <path d="M134.417103,148.974235 L166.455722,116.161738 L134.417104,55.1546874 C131.374828,49.3635911 123.983911,48.7568362 120.973828,54.5646483 L103.26875,88.6738296 L102.739423,90.4175473 L134.417103,148.974235 Z" id="path-3"/>
        <filter x="-50%" y="-50%" width="200%" height="200%" filterUnits="objectBoundingBox" id="filter-4">
            <feGaussianBlur stdDeviation="3.5" in="SourceAlpha" result="shadowBlurInner1"/>
            <feOffset dx="1" dy="-9" in="shadowBlurInner1" result="shadowOffsetInner1"/>
            <feComposite in="shadowOffsetInner1" in2="SourceAlpha" operator="arithmetic" k2="-1" k3="1" result="shadowInnerInner1"/>
            <feColorMatrix values="0 0 0 0 0   0 0 0 0 0   0 0 0 0 0  0 0 0 0.09 0" type="matrix" in="shadowInnerInner1"/>
        </filter>
    </defs>
	<g>
		<path d="M0,282.99762 L2.12250746,280.0256 L102.527363,89.5119284 L102.739423,87.4951323 L58.478806,4.35817711 C54.7706269,-2.60604179 44.3313035,-0.845245771 43.1143483,6.95065473 L0,282.99762 Z" fill="#FFC24A"/>
		<g>
			<use fill="#FFA712" fill-rule="evenodd" xlink:href="#path-1"/>
			<use fill="black" fill-opacity="1" filter="url(#filter-2)" xlink:href="#path-1"/>
		</g>
		<path d="M135.004975,150.380704 L167.960199,116.629461 L134.995423,53.6993114 C131.866109,47.7425353 123.128817,47.7253411 120.032618,53.6993112 L102.421015,87.2880848 L102.421015,90.1487443 L135.004975,150.380704 Z" fill="#F4BD62"/>
		<g>
			<use fill="#FFA50E" fill-rule="evenodd" xlink:href="#path-3"/>
			<use fill="black" fill-opacity="1" filter="url(#filter-4)" xlink:href="#path-3"/>
		</g>
		<polygon fill="#F6820C" points="0 282.99762 0.962097168 282.030396 4.45771144 280.60956 132.935323 152.60956 134.563025 148.178595 102.513123 87.1048584"/>
		<path d="M139.120971,347.551268 L255.395916,282.703666 L222.191698,78.2093373 C221.153051,71.8112478 213.303658,69.2818149 208.724314,73.8694368 L0.000254726368,282.997875 L115.608454,347.545536 C122.914643,351.624979 131.812872,351.62689 139.120971,347.551268" fill="#FDE068"/>
		<path d="M254.354084,282.159837 L221.401937,79.2179369 C220.371175,72.8684188 213.843792,70.2409553 209.299213,74.79375 L1.28945312,282.600785 L115.627825,346.509458 C122.878548,350.557931 131.709226,350.559827 138.961846,346.515146 L254.354084,282.159837 Z" fill="#FCCA3F"/>
		<path d="M139.120907,345.64082 C131.812808,349.716442 122.914579,349.714531 115.60839,345.635089 L0.93134768,282.014551 L0.000191044776,282.997875 L115.60839,347.545536 C122.914579,351.624979 131.812808,351.62689 139.120907,347.551268 L255.395853,282.703666 L255.111196,280.951785 L139.120907,345.64082 Z" fill="#EEAB37"/>
	</g>
</svg>
